svg/filled/bitcoin.svg

<svg width="24" height="24" viewBox="0 0 24 24" fill="none" xmlns="http://www.w3.org/2000/svg">
<path fill-rule="evenodd" clip-rule="evenodd" d="M13.4253 6.43215C15.408 6.62196 16.9628 7.2096 17.1351 8.96007C17.2521 10.2362 16.6973 10.9955 15.7799 11.4234C17.261 11.7819 18.162 12.6248 17.9758 14.4945C17.7491 16.8381 15.9412 17.4468 13.3564 17.5752L13.3604 19.9947L11.8381 19.9966L11.8341 17.5771C11.6677 17.5747 11.4937 17.5772 11.3153 17.5796C11.0769 17.5829 10.8306 17.5864 10.5837 17.5787L10.5878 19.9982L9.06823 20.0001L9.06418 17.5806L6.01983 17.5222L6.27638 15.754C6.27638 15.754 7.42618 15.7785 7.40486 15.7657C7.82815 15.7635 7.95378 15.4725 7.98507 15.2814L7.9775 11.4028L7.98945 8.64238C7.94271 8.35464 7.74079 8.0094 7.11848 7.99892C7.15237 7.96945 6.00388 8.00031 6.00388 8.00031L6.00003 6.37926L9.11972 6.37537L9.11576 4.00543L10.6874 4.00347L10.6914 6.37341C10.9948 6.36526 11.2941 6.3676 11.5967 6.36995C11.6961 6.37073 11.7958 6.3715 11.8961 6.37191L11.8921 4.00197L13.4213 4.00006L13.4253 6.43215ZM10.5043 10.8912L10.5815 10.8944C11.5067 10.9335 14.2501 11.0495 14.2543 9.43656C14.2501 7.90522 11.9153 7.95463 10.8305 7.97759C10.7024 7.9803 10.5917 7.98264 10.5043 7.98197V10.8912ZM10.6339 15.642C10.5853 15.6401 10.5406 15.6383 10.5 15.6368L10.5 12.7276C10.5967 12.7285 10.7182 12.727 10.8587 12.7253C12.1408 12.7098 15.0044 12.6752 14.9908 14.219C15.0052 15.8158 11.773 15.6873 10.6339 15.642Z" fill="black"/>
</svg>

<svg xmlns="http://www.w3.org/2000/svg" viewBox="0 0 24 24" fill="currentColor">
  <path fill-rule="evenodd" d="M13.425 6.432c1.983.19 3.538.778 3.71 2.528.117 1.276-.438 2.035-1.355 2.463 1.481.359 2.382 1.202 2.196 3.072-.227 2.343-2.035 2.952-4.62 3.08l.004 2.42-1.522.002-.004-2.42c-.166-.002-.34 0-.519.003-.238.003-.484.006-.731-.001l.004 2.42-1.52.001-.004-2.42-3.044-.058.256-1.768s1.15.024 1.129.012c.423-.002.549-.293.58-.485l-.008-3.878.012-2.76c-.046-.288-.248-.634-.87-.644.033-.03-1.115.001-1.115.001L6 6.38l3.12-.005-.004-2.37 1.571-.002.004 2.37c.304-.008.603-.005.906-.003l.3.002-.005-2.37L13.422 4l.003 2.432zm-2.92 4.46l.076.002c.926.04 3.67.155 3.673-1.457-.004-1.532-2.339-1.482-3.423-1.46-.129.003-.24.006-.327.005v2.91zm.129 4.75l-.134-.005v-2.91c.097.002.218 0 .359-.002 1.282-.015 4.145-.05 4.132 1.494.014 1.597-3.218 1.468-4.357 1.423z" clip-rule="evenodd"/>
</svg>
